!!!COM: Palestrina, Giovanni Perluigi da
!!!OPR: Missa Ave Maria (1596)
!!!OTL: Benedictus
**kern	**kern	**kern	**kern
*Itenor	*Icalto	*Icant	*Icant
!Tenor	!Altus	!Cantus 2	!Cantus 1
*clefGv2	*clefG2	*clefG2	*clefG2
*k[b-]	*k[b-]	*k[b-]	*k[b-]
*F:ion	*F:ion	*F:ion	*F:ion
*M4/2	*M4/2	*M4/2	*M4/2
=1	=1	=1	=1
0r	0r	0r	0b-
=2	=2	=2	=2
0r	0f	0r	1cc
.	.	.	1dd
=3	=3	=3	=3
0r	1g	0r	2dd
.	.	.	2dd
.	1a	.	2ff
.	.	.	4ee
.	.	.	4dd
=4	=4	=4	=4
0r	2a	0r	2ee
.	2a	.	2.ff
.	2.b-	.	.
.	.	.	4ee
.	.	.	4dd
.	4a	.	4cc
=5	=5	=5	=5
0r	2.g	0b-	4dd
.	.	.	4cc
.	.	.	4b-
.	4f	.	4a
.	2e-	.	2g
.	2d	.	2f
=6	=6	=6	=6
0r	1c	1cc	2g
.	.	.	2a
.	1B-	1dd	2.b-
.	.	.	4a
=7	=7	=7	=7
0r	2r	2dd	1g
.	1b-	2dd	.
.	.	2.ff	1f
.	2a	.	.
.	.	4ee-	.
=8	=8	=8	=8
0r	2b-	2dd	0r
.	2.a	2cc	.
.	.	2.b-	.
.	4g	.	.
.	[2g	.	.
.	.	8a	.
.	.	8g	.
=9	=9	=9	=9
0r	2g]	1a	0r
.	2f#	.	.
.	[1g	4g	.
.	.	4a	.
.	.	4b-	.
.	.	4cc	.
=10	=10	=10	=10
0r	1g]	4dd	0b-
.	.	4ee-	.
.	.	2.dd	.
.	1r	.	.
.	.	4cc	.
.	.	[2b-	.
=11	=11	=11	=11
1r	0f	2b-]	1cc
.	.	2a	.
[1B-	.	1b-	1dd
=12	=12	=12	=12
1B-]	1g	2r	2dd
.	.	1dd	2dd
[1A	1a	.	2ff
.	.	4cc	4ee
.	.	4b-	4dd
=13	=13	=13	=13
1A_	2a	2.cc	1ee
.	2a	.	.
.	.	4b-	.
1A_	2.cc	4a	2ee
.	.	4b-	.
.	.	4cc	2a
.	4b-	4dd	.
=14	=14	=14	=14
1A]	2a	4ee	2.cc
.	.	4ff	.
.	2g	1ee	.
.	.	.	4b-
[1A	2f	.	[1a
.	4e	[2dd	.
.	4d	.	.
=15	=15	=15	=15
1A]	1e	2dd]	1a]
.	.	2cc#	.
1B-	[1d	2.dd	2.f
.	.	4ee	4g
=16	=16	=16	=16
[0F	2d]	1ff	2a
.	4c	.	1b-
.	4B-	.	.
.	[1c	2r	.
.	.	2f	4a
.	.	.	4g
=17	=17	=17	=17
1F]	1c]	4f	0a
.	.	4g	.
.	.	4a	.
.	.	4b-	.
[1A	2r	4cc	.
.	.	4dd	.
.	2c	4ee	.
.	.	4ff	.
=18	=18	=18	=18
1A]	4c	2ee	1r
.	4d	.	.
.	4e	2cc	.
.	4f	.	.
1G	4g	2ee-	2r
.	4a	.	.
.	[2b-	2dd	2g
=19	=19	=19	=19
1G	4b-]	1dd	4g
.	4a	.	4a
.	2g	.	4b-
.	.	.	4cc
[1B-	1f	2r	4dd
.	.	.	4ee
.	.	4b-	[2ff
.	.	4cc	.
=20	=20	=20	=20
1B-]	2.b-	4dd	4ff]
.	.	4ee	4ee
.	.	4ff	2dd
.	4a	4dd	.
[1c	2g	2ee	1cc
.	2f	[2ff	.
=21	=21	=21	=21
0c]	1g	2ff]	2r
.	.	4ee	2g
.	.	4dd	.
.	1r	1ee	2g
.	.	.	2g
=22	=22	=22	=22
0r	2r	1ee	2.cc
.	2c	.	.
.	.	.	4dd
.	2c	1r	4ee
.	.	.	4ff
.	2c	.	2gg
=23	=23	=23	=23
0r	2.f	0r	2cc
.	.	.	1ff
.	4g	.	.
.	4a	.	.
.	4b-	.	.
.	[2cc	.	4ee
.	.	.	4dd
=24	=24	=24	=24
0r	4cc]	1cc	4ee
.	4b-	.	4dd
.	4a	.	4cc
.	4g	.	4b-
.	2f	2cc	4a
.	.	.	4b-
.	2e	2cc	[2cc
=25	=25	=25	=25
0r	1d	2.ff	2cc]
.	.	.	2b
.	.	4dd	.
.	4c	4ee	1cc
.	4d	4ff	.
.	4e	[2gg	.
.	4f	.	.
=26	=26	=26	=26
0r	4g	4gg]	0r
.	4a	4ff	.
.	4b-	4dd	.
.	4g	4ee	.
.	4a	2ff	.
.	4b-	.	.
.	[2cc	2ee	.
=27	=27	=27	=27
0r	2cc]	1.dd	1g
.	4b	.	.
.	4a	.	.
.	2b	.	2g
.	2b	2dd	2g
=28	=28	=28	=28
0r	2cc	0cc	4cc
.	.	.	4dd
.	2.c	.	4ee
.	.	.	4ff
.	.	.	2.gg
.	4d	.	.
.	4e	.	.
.	4f	.	4ff
=29	=29	=29	=29
0r	4g	2r	2ee
.	4a	.	.
.	2.b-	2g	2.dd
.	.	2g	.
.	4a	.	4cc
.	[2g	2g	2b-
=30	=30	=30	=30
0r	2g]	2.cc	2a
.	2f	.	2a
.	.	4dd	.
.	2g	4ee	1g
.	.	4ff	.
.	2c	[2gg	.
=31	=31	=31	=31
0r	2c	4gg]	2r
.	.	4ff	.
.	2c	4ee	2cc
.	.	4dd	.
.	2.f	4cc	2cc
.	.	4b-	.
.	.	4a	2cc
.	4e	4g	.
=32	=32	=32	=32
1r	4d	2a	2.ff
.	4c	.	.
.	1B-	2b-	.
.	.	.	4ee
[1f	.	2f	2dd
.	2A	[2a	[2cc
=33	=33	=33	=33
1f]	1d	2a]	2cc]
.	.	4g	2b
.	.	4f	.
[1e	1c	1g	2cc
.	.	.	2g
=34	=34	=34	=34
1e_	[0c	1r	2g
.	.	.	2g
1e_	.	2r	2.cc
.	.	2g	.
.	.	.	4dd
=35	=35	=35	=35
1e]	0c]	2g	4ee
.	.	.	4ff
.	.	2g	2.gg
[1e	.	2.cc	.
.	.	.	4ff
.	.	.	4ee
.	.	4dd	4dd
=36	=36	=36	=36
1e]	0r	4ee	2cc
.	.	4ff	.
.	.	1gg	2b-
1f	.	.	2a
.	.	[2ff	2a
=37	=37	=37	=37
[0c	2r	2ff]	1g
.	2g	2ee	.
.	2g	1ee	2r
.	2g	.	2g
=38	=38	=38	=38
1c]	1cc	2r	2g
.	.	2g	2g
[1e	1c	2g	2.cc
.	.	2g	.
.	.	.	4dd
=39	=39	=39	=39
1e]	2c	1cc	4ee
.	.	.	4ff
.	2c	.	4gg
.	.	.	4ee
1d	2.f	2r	2ff
.	.	2a	2dd
.	4g	.	.
=40	=40	=40	=40
1d	4a	2dd	2ff
.	4f	.	.
.	1b-	2dd	2ff
[1f	.	1cc	2.ff
.	4a	.	.
.	4g	.	8ee
.	.	.	8dd
=41	=41	=41	=41
1f]	2a	1.ff	2cc
.	2d	.	1dd
[1g	2B-	.	.
.	2c	2ee	[2cc
=42	=42	=42	=42
0g]	0G	1dd	2cc]
.	.	.	4b
.	.	.	4a
.	.	1dd	2b
.	.	.	2b
=43	=43	=43	=43
0g	0c	0ee	0cc
==	==	==	==
*-	*-	*-	*-
!!!CDT: 1525/^1526/-1594/2/2
!!!OCY: Italia
!!!AGN: Mass (Tenor)
!!!AST: renaissance, vocal
!!!ASW: Motet 1563 (Palestrina)
!!!PWK: Masses, Book 6
!!!RNB: Cadence finals: C
!!!YOR: Le Opere Complete, v. 21, p. 142
!!!YOO: Rome, Italy: Fratelli Scalera
!!!END: 1992//
!!!EED: John Miller
!!!YEC: Copyright 2000, John Miller
!!!YEN: United States of America
!!!YEM: Rights to all derivative electronic formats reserved.
!!!YEM: Refer to licensing agreement for further details.
!!!YEM: This file must be accompanied by the licensing agreement.
!!!YEM: A copy of the licensing agreement may be found at http://www.music-cog.ohio-state.edu/HumdrumDatabases/Palestrina/license.txt
!!!EMD: converted to Humdrum by Bret Aarden
